X:1
T:Meditabor in mandatis tuis - Lassus
T:#
%%score [ 1 2 3 4 ]
L:1/8
Q:1/4=100
M:4/4
K:D
V:1 treble nm="Soprano" snm="S"
V:2 treble nm="Alto" snm="A"
V:3 treble-8 nm="Tenor" snm="T"
V:4 bass nm="Bass" snm="B"
V:1
 z4"^Meditabor in mandatis tuis""^Orlando de Lassus\n(1530-94)" F4- | F2 F2 c4 | c4 z2 A2 | %3
w: Me\-|* di- ta-|bor in|
 c2 d2 A4- | A2 F2 A4 |[M:4/4] z4 z2 A2 | ^G2 A2 E2 (FD | EF G2 FEFG) | A2 F2 E2 F2 | %9
w: man- da- tis|* tu- is,|in|man- da- tis tu\- *||is, in man- da-|
 A2 F2 E2 e2- | (ed) =c2 B2 A2 | (^G2 A3 G/F/ G2) | E2 e4 (d2- | dc/B/ c2) d2 B2 | e4 A2 d2 | %15
w: tis tu- is, in|* * man- da- tis|tu * * * *|is, quae di\-|* * * * le- xi|val- de, quae|
 c2 (B3 A A2- | A2) ^G2 A4 | B4 z4 | z4 G4 | F2 f4 f2 | (edcB A4- | A4) (c3 d | e2) (d3 c B2) | %23
w: di- le\- * *|* xi val-|de:|et|le- va- bo|ma\- * * * *|* nus *|* me\- * *|
 A8 | z2 A4 G2 | F4 E4 | G2 F2 z2 c2 | d2 (e3 d/c/ d2) | B2 E2 B4- | B8 | B4 z4 | B4 =c4 | %32
w: as,|ad man-|da- ta|tu- a, ad|man- da\- * * *|ta tu- a,|||quae di-|
 B4 A2 (d2- | dc B3 A/G/ A2) | G2 (B4 A2-) | (A^G/F/ G2) A4- | A4 z4 | z2 c2 d2 (c2- | %38
w: le- xi, quae||di- le\- *|* * * * xi,||quae di- le\-|
 cB B3 A/G/ A2) | (B3 A/G/ A2) F2 | G2 (B4 A2- | A^G/F/ G2) A2[Q:1/4=98] E2 | %42
w: |xi, * * * quae|di- le\- *|* * * * xi, quae|
[Q:1/4=96] F2[Q:1/4=93] (A3[Q:1/4=91] B[Q:1/4=89] c2) | %43
w: di- le\- * *|
[Q:1/4=87] (F[Q:1/4=86]G[Q:1/4=85]A[Q:1/4=84]B[Q:1/4=84] c8) |] %44
w: xi. * * * *|
V:2
 D6 D2 | A4 A4 | z2 A,2 C2 D2 | A,2 (B,C DCDE | F2) D2 z2 A,2 |[M:4/4] C2 D2 E4 | E4 A4 | %7
w: Me- di-|ta- bor|in man- da-|tis tu\- * * * * *|* is, in|man- da- tis|tu- is,|
 z4 z2 D2 | C2 D2 A,2 A,2 | E2 (D3 =C/B,/ C2) | B,2 (E3 D =C2) | B,2 E2 E4 | A4 G2 (F2- | %13
w: in|man- da- tis tu-|is, in * * *|man- da\- * *|tis tu- is,|quae di- le\-|
 FE/D/ E2) A,2 (D2- | DC/B,/ C2) D2 A2- | A2 G2 F2 F2 | E4 E2 A2 | G2 (F3 E/D/ E2) | %18
w: * * * * xi val\-|* * * * de, quae|* di- le- xi|val- de, quae|di- le\- * * *|
 A,2 (D3 C/B,/ C2) | (D3 C/B,/ A,4) | z8 | z8 | G,4 F,2 F2- | F2 F2 (EDCB, | A,2) A,2 B,4 | %25
w: xi val\- * * *|de: * * *|||et le- va\-|* bo ma\- * * *|* nus me-|
 B,4 z4 | z4 z2 A2- | A2 G2 F4 | E2 C2 D2 (E2- | ED/C/ D2) G4 | F4 E2 G2- | G2 F2 (AE A2- | %32
w: as,|ad|* man- da-|ta, ad man- da\-|* * * * ta|tu- a, quae|* di- le\- * *|
 AG/F/ G2) F4 | z2 (D3 C/B,/CD | E2) G2 E4 | E4 z2 C2 | D2 (C3 B, B,2- | B,A,/G,/ A,2) (B,2 A,G, | %38
w: * * * * xi,|quae * * * *|* di- le-|xi, quae|di- le\- * *|* * * * xi, * *|
 F,4) z2 F2 | D2 (E3 D/C/ D2) | E2 G4 E2 | E4 E2 A2 | (AGFE D2) C2 | (DEFD E8) |] %44
w: * quae|di- le\- * * *|xi, quae di-|le- xi, quae|di\- * * * * le-|xi. * * * *|
V:3
 z8 | z8 | z8 | z8 | z4 F4- |[M:4/4][K:treble-8] F2 F2 c4 | c4 z2 A2 | c2 d2 A4 | z2 A2 c2 d2 | %9
w: ||||Me\-|* di- ta-|bor in|man- da- tis,|in man- da-|
 A4 z2 A2 | ^G2 A2 E2 (e2- | ed =c2) (B4 | A4) z4 | z8 | g4 f4 | (e3 d c2) d2 | B4 A2 e2- | %17
w: tis, in|man- da- tis tu\-|* * * is,|||quae di-|le\- * * xi|val- de, quae|
 e2 (d3 c/B/ c2) | d2 B2 e4 | A4 d4 | c2 f4 f2 | (edcB A2) A2 | (Bcde f2) (d2- | d2 cB cd e2- | %24
w: * di\- * * *|le- xi val-|de: et|le- va- bo|ma\- * * * * nus|me\- * * * * as,||
 ed/c/ dc e2) e2- | e2 d2 c4 | B2 (B3 A/G/ A2) | B8 | z2 A4 G2 | F4 E2 e2- | (ed/c/ d2) A2 (e2- | %31
w: * * * * * * ad|* man- da-|ta tu\- * * *|a,|ad man-|da- ta tu\-|* * * * a, quae|
 ed/c/ d2) e4 | (e3 d cB A2) | B4 z4 | B4 =c4 | B4 A4 | z8 | z4 z2 c2 | d4 c4 | B4 z4 | B4 =c4 | %41
w: * * * * di-|le\- * * * *|xi,|quae di-|le- xi,||quae|di- le-|xi,|quae di-|
 B4 A4- | A8 | A4 A8 |] %44
w: le- xi.|||
V:4
 z8 | z8 | z8 | z8 | D,6 D,2 |[M:4/4] A,4 A,4 | z2 A,,2 C,2 D,2 | A,,2 (B,,C, D,C,D,E, | %8
w: ||||Me- di-|ta- bor|in man- da-|tis tu\- * * * * *|
 F,2) D,2 z2 D,2 | C,2 D,2 A,,4 | z2 A,2 ^G,2 A,2 | E,2 A,,2 E,4 | =C4 B,4 | (A,3 G, F,2) G,2 | %14
w: * is, in|man- da- tis,|in man- da-|tis tu- is,|quae di-|le\- * * xi|
 E,4 D,4 | z2 E,2 F,2 D,2 | E,4 =C4 | B,4 (A,3 G, | F,2) G,2 E,4 | D,8 | z4 D,4 | C,2 F,4 F,2 | %22
w: val- de,|quae di- le-|xi, quae|di- le\- *|* xi val-|de:|et|le- va- bo|
 E,2 B,2 (B,,3 C, | D,E,F,G, A,3 G, | F,4) E,4 | z4 z2 E,2- | E,2 D,2 (C,4 | B,,4) (B,,3 A,, | %28
w: ma- nus me\- *||* as,|ad|* man- da\-|* ta\- *|
 ^G,,2) A,,2 B,,4- | B,,4 z4 | B,4 =C4 | B,4 A,4 | z4 F,4 | G,4 F,4 | E,8- | E,4 z4 | z2 C,2 D,4 | %37
w: * tu- a,||quae di-|le- xi,|quae|di- le-|xi,||quae di-|
 C,4 B,,2 F,2 | D,2 B,,2 F,2 F,2 | G,4 F,4 | E,8- | E,4 C,4 | D,4 (F,3 E, | D,4) A,,8 |] %44
w: le- xi, quae|di- le- xi, quae|di- le-|xi,|* quae|di- le\- *|* xi.|

